src/objects/household/1F9EF.svg

<svg id="emoji" viewBox="0 0 72 72" xmlns="http://www.w3.org/2000/svg">
  <g id="grid">
    <path fill="#b3b3b3" d="M68,4V68H4V4H68m4-4H0V72H72V0Z"/>
    <path fill="none" stroke="#00a5ff" stroke-miterlimit="10" stroke-width="0.1" d="M12.923,10.9583H59.0769A1.9231,1.9231,0,0,1,61,12.8814V59.0352a1.9231,1.9231,0,0,1-1.9231,1.9231H12.9231A1.9231,1.9231,0,0,1,11,59.0352V12.8813A1.923,1.923,0,0,1,12.923,10.9583Z"/>
    <rect x="16" y="4" rx="2.2537" ry="2.2537" width="40" height="64" fill="none" stroke="#00a5ff" stroke-miterlimit="10" stroke-width="0.1"/>
    <rect x="16" y="4" rx="2.2537" ry="2.2537" width="40" height="64" transform="translate(72) rotate(90)" fill="none" stroke="#00a5ff" stroke-miterlimit="10" stroke-width="0.1"/>
    <circle cx="36" cy="36" r="29" fill="none" stroke="#00a5ff" stroke-miterlimit="10" stroke-width="0.1"/>
  </g>
  <g id="color">
    <path fill="#d22f27" d="M44.75,28.1191V64H26.47V28.1191a8.9827,8.9827,0,0,1,5.93-8.7063,6.3683,6.3683,0,0,1,.65-.176h.01a7.4867,7.4867,0,0,1,1.66-.1868H36.5C41.06,19.05,44.75,23.1064,44.75,28.1191Z"/>
    <path fill="#ea5a47" d="M38.33,26.723V64H26.47V28.1191a8.9827,8.9827,0,0,1,5.93-8.7063,6.3683,6.3683,0,0,1,.65-.176h.01a7.4867,7.4867,0,0,1,1.66-.1868h.15A9.844,9.844,0,0,1,38.33,26.723Z"/>
    <rect x="33.518" y="9.9768" width="4.186" height="8.704" fill="#ea5a47"/>
    <rect x="39.6339" y="10.7868" width="3.1867" height="7.0465" transform="translate(55.5374 -26.9172) rotate(90)" fill="#d0cfce"/>
    <path fill="#d0cfce" d="M33.52,12.7167H28.8791a4.5108,4.5108,0,0,0-3.7455,1.9973L19.63,22.9146a1.5943,1.5943,0,0,0,.6751,2.34,1.6527,1.6527,0,0,0,2.0226-.6418l4.475-6.7034a4.5109,4.5109,0,0,1,3.7516-2.0062H33.52Z"/>
    <polygon fill="#d0cfce" points="44.751 12.412 44.751 14.243 44.751 14.415 44.751 16.245 56.844 18.864 56.844 14.415 56.844 14.243 56.844 9.793 44.751 12.412"/>
    <rect x="30.9133" y="29.2839" width="9.3953" height="5.6744" fill="#fff"/>
  </g>
  <g id="line">
    <path fill="none" stroke="#000" stroke-linecap="round" stroke-linejoin="round" stroke-width="2" d="M35.611,19.0521h0a9.14,9.14,0,0,1,9.14,9.14V63.1053a.8909.8909,0,0,1-.8909.8909H27.3624a.8909.8909,0,0,1-.8909-.8909V28.1916A9.14,9.14,0,0,1,35.611,19.0521Z"/>
    <rect x="33.518" y="9.9768" width="4.186" height="8.704" fill="none" stroke="#000" stroke-linecap="round" stroke-linejoin="round" stroke-width="2"/>
    <rect x="39.6339" y="10.7868" width="3.1867" height="7.0465" transform="translate(55.5374 -26.9172) rotate(90)" fill="none" stroke="#000" stroke-linecap="round" stroke-linejoin="round" stroke-width="2"/>
    <path fill="none" stroke="#000" stroke-linecap="round" stroke-linejoin="round" stroke-width="2" d="M33.52,12.7167H28.8791a4.5108,4.5108,0,0,0-3.7455,1.9973L19.63,22.9146a1.5943,1.5943,0,0,0,.6751,2.34,1.6527,1.6527,0,0,0,2.0226-.6418l4.475-6.7034a4.5109,4.5109,0,0,1,3.7516-2.0062H33.52Z"/>
    <polygon fill="none" stroke="#000" stroke-linecap="round" stroke-linejoin="round" stroke-width="2" points="44.751 12.412 44.751 14.243 44.751 14.415 44.751 16.245 56.844 18.864 56.844 14.415 56.844 14.243 56.844 9.793 44.751 12.412"/>
    <rect x="30.9133" y="29.2839" width="9.3953" height="5.6744" fill="none" stroke="#000" stroke-linecap="round" stroke-linejoin="round" stroke-width="2"/>
  </g>
</svg>

<svg viewBox="0 0 72 72" xmlns="http://www.w3.org/2000/svg"><path fill="#b3b3b3" d="M68 4v64H4V4h64m4-4H0v72h72V0z"/><path fill="none" stroke="#00a5ff" stroke-miterlimit="10" stroke-width=".1" d="M12.923 10.958h46.154A1.923 1.923 0 0161 12.881v46.154a1.923 1.923 0 01-1.923 1.923H12.923A1.923 1.923 0 0111 59.035V12.881a1.923 1.923 0 011.923-1.923z"/><rect x="16" y="4" rx="2.254" ry="2.254" width="40" height="64" fill="none" stroke="#00a5ff" stroke-miterlimit="10" stroke-width=".1"/><rect x="16" y="4" rx="2.254" ry="2.254" width="40" height="64" transform="rotate(90 36 36)" fill="none" stroke="#00a5ff" stroke-miterlimit="10" stroke-width=".1"/><circle cx="36" cy="36" r="29" fill="none" stroke="#00a5ff" stroke-miterlimit="10" stroke-width=".1"/><g stroke-linecap="round" stroke-miterlimit="10" stroke-width="6" stroke="#fff" fill="none" stroke-linejoin="round"><path d="M35.611 19.052h0a9.14 9.14 0 019.14 9.14v34.913a.89.89 0 01-.89.891h-16.5a.89.89 0 01-.89-.89V28.191a9.14 9.14 0 019.139-9.14zm-2.093-9.075h4.186v8.704h-4.186zm11.232 2.74v3.187h-7.046v-3.187z"/><path d="M33.52 12.717h-4.64a4.51 4.51 0 00-3.746 1.997l-5.504 8.2a1.594 1.594 0 00.675 2.34 1.653 1.653 0 002.023-.641l4.475-6.704a4.51 4.51 0 013.751-2.006h2.966zm11.231-.305v3.833l12.093 2.619V9.793l-12.093 2.619zM30.913 29.284h9.395v5.674h-9.395z"/></g><path fill="#d22f27" d="M44.75 28.12V64H26.47V28.12a8.983 8.983 0 015.93-8.707 6.368 6.368 0 01.65-.176h.01a7.487 7.487 0 011.66-.187h1.78c4.56 0 8.25 4.056 8.25 9.07z"/><path fill="#ea5a47" d="M38.33 26.723V64H26.47V28.12a8.983 8.983 0 015.93-8.707 6.368 6.368 0 01.65-.176h.01a7.487 7.487 0 011.66-.187h.15a9.844 9.844 0 013.46 7.673zM33.518 9.977h4.186v8.704h-4.186z"/><path fill="#d0cfce" d="M44.75 12.717v3.187h-7.046v-3.187zm-11.23 0h-4.64a4.51 4.51 0 00-3.746 1.997l-5.504 8.2a1.594 1.594 0 00.675 2.34 1.653 1.653 0 002.023-.641l4.475-6.704a4.51 4.51 0 013.751-2.006h2.966zm11.231-.305v3.833l12.093 2.619V9.793l-12.093 2.619z"/><path fill="#fff" d="M30.913 29.284h9.395v5.674h-9.395z"/><g fill="none" stroke="#000" stroke-linecap="round" stroke-linejoin="round" stroke-width="2"><path d="M35.611 19.052h0a9.14 9.14 0 019.14 9.14v34.913a.89.89 0 01-.89.891h-16.5a.89.89 0 01-.89-.89V28.191a9.14 9.14 0 019.139-9.14zm-2.093-9.075h4.186v8.704h-4.186zm11.232 2.74v3.187h-7.046v-3.187z"/><path d="M33.52 12.717h-4.64a4.51 4.51 0 00-3.746 1.997l-5.504 8.2a1.594 1.594 0 00.675 2.34 1.653 1.653 0 002.023-.641l4.475-6.704a4.51 4.51 0 013.751-2.006h2.966zm11.231-.305v3.833l12.093 2.619V9.793l-12.093 2.619zM30.913 29.284h9.395v5.674h-9.395z"/></g></svg>
